src/assets/imgs/clock-icon.svg

<svg viewBox="0 0 512 512" xmlns="http://www.w3.org/2000/svg">
  <path d="M256 512C114.6 512 0 397.4 0 256S114.6 0 256 0s256 114.6 256 256-114.6 256-256 256m-24-256c0 8 4 15.5 10.7 19.1l96 64c11 8.2 25.9 5.2 32.4-5.8 8.2-11 5.2-25.9-5.8-33.3L280 243.2V120c0-13.3-10.7-24-24.9-24-12.4 0-24 10.7-24 24z"/>
</svg>

<?xml version="1.0" ?><svg viewBox="0 0 512 512" xmlns="http://www.w3.org/2000/svg"><path d="M256 512C114.6 512 0 397.4 0 256C0 114.6 114.6 0 256 0C397.4 0 512 114.6 512 256C512 397.4 397.4 512 256 512zM232 256C232 264 236 271.5 242.7 275.1L338.7 339.1C349.7 347.3 364.6 344.3 371.1 333.3C379.3 322.3 376.3 307.4 365.3 300L280 243.2V120C280 106.7 269.3 96 255.1 96C242.7 96 231.1 106.7 231.1 120L232 256z"/></svg>
